X:1
T:Title
%%score 1 { 2 | 3 }
L:1/8
Q:1/4=80
M:6/8
K:G
V:1 treble nm="Grand Piano, Soprano"
V:2 treble nm="Choir Pad, I Love Thee, My Lord"
V:3 bass 
V:1
 G[GB]>[GB] [GB][GB][GA] | [DG][DG]>[DF] [^CE] D2 | D[DG]>[DG] [DG][GB][Gd] | %3
w: By~Samuel~Boltz~Ellenberger,~1881 * * * * *|||
 [GB][FA]>[GB] [FA] [FA]2 | [GB][DG]>[DG] [CE][Ec][Ec] | [Ge][Fd]>[FA] [FA] [GB]2 | %6
w: |||
 [Gc][GB]>[GA] G[GB]<[GB] | [DG][DA]>[DB] [CA] [B,G]2 | [Dd] [Gd]2 [GB] [GB]2 | %9
w: |||
 [DG] [DG]2- [DG]2- [DG]/ z/ | [DG][GB]>[GA] G[DG]>[DF] | [^CE] D2- D2- D/ z/ | %12
w: |||
 [Bd] [Bd]2- [Bd]2- [Bd]/ z/ | [DG] [EG]2- [EG]2- [EG]/ z/ | [CE] [B,D]2 [DB] [DB]2 | %15
w: |||
 [CA] [B,G]2- [B,G]3- | [B,G]3 z3 |] %17
w: ||
V:2
 B,D>D DDC | B,B,>A, G, F,2 | G,B,>B, B,[K:treble]DD | DD>D D D2 | D[K:bass]B,>G, G,G,G, | %5
 CA,>D D D2 | ED>C B,D<D | B,F,>G, F, G,2 | B, B,2 D D2 | B, B,2- B,2- B,/ z/ | B,D>C B,B,>A, | %11
 G, F,2- F,2- F,/ z/ | G, G,2- G,2- G,/ z/ | G,[K:treble] C2- C2- C/ z/ | G, G,2[K:bass] G, F,2 | %15
 F, G,2- G,3- | G,3 z3 |] %17
V:3
 G,G,>G, G,G,G, | G,G,,>A,, A,, D,2 | B,,G,,>G,, G,,G,,B,, | G,,D,>D, D, D,2 | G,G,>B,, C,C,C, | %5
 C,D,>D, D, G,2 | G,G,>G, G,G,<G, | G,D,>D, .D,3 | G, G,2 G, G,2 | G, G,2- G,2- G,/ z/ | %10
 G,G,,>G,, G,,G,,>A,, | A,, D,2- D,2- D,/ z/ | G,, G,,2- G,,2- G,,/ z/ | B,, C,2- C,2- C,/ z/ | %14
 C, D,2 D, D,2 | D, G,,2- G,,3- | G,,3 z3 |] %17

